Obsidian-SemiLight/actions/16s/format-text-symbol.svg

<svg viewBox="0 0 16 16" xmlns="http://www.w3.org/2000/svg"><path d="m5.75 2s-3.75.0000094-3.75 3.75c.7491174-1.4981963 1.4651563-1.717025 3.7089844-1.71875-.0089663 8.202655-2.2071206 8.237903-2.2089844 9.546875 1.1256188.864073 2.884518.385121 3.0136719-1.3125l.6757812-8.2578125 2.9882809-.0117187-.677734 8.3164062c0 2.249994 2.999999 2.249994 3.75 0l.75-2.25c-.749999 1.499996-2.999388 3.750457-2.933594 1.460938l.634766-7.5156255 2.298828-.0078125v-2z" fill="#4d4d4d"/></svg>

<svg xmlns="http://www.w3.org/2000/svg" viewBox="0 0 16 16">
  <defs id="defs3051">
    <style type="text/css" id="current-color-scheme">
      .ColorScheme-Text {
        color:#4d4d4d;
      }
      </style>
  </defs>
 <path style="fill:currentColor;fill-opacity:1;stroke:none" 
       d="M 5.75 2 C 5.75 2 2 2.0000094 2 5.75 C 2.7491174 4.2518037 3.4651563 4.032975 5.7089844 4.03125 C 5.7000181 12.233905 3.5018638 12.269153 3.5 13.578125 C 4.6256188 14.442198 6.384518 13.963246 6.5136719 12.265625 L 7.1894531 4.0078125 L 10.177734 3.9960938 L 9.5 12.3125 C 9.5 14.562494 12.499999 14.562494 13.25 12.3125 L 14 10.0625 C 13.250001 11.562496 11.000612 13.812957 11.066406 11.523438 L 11.701172 4.0078125 L 14 4 L 14 2 L 5.75 2 z "
     class="ColorScheme-Text"
     />
</svg>
